packages/foundations/assets/icons/functional/images/audio & video/volume_disabled_28.svg

<svg width="28" height="28" viewBox="0 0 28 28" fill="none" xmlns="http://www.w3.org/2000/svg">
<g clip-path="url(#clip0_184_397)">
<path fill-rule="evenodd" clip-rule="evenodd" d="M23.625 3.49988C24.103 3.49988 24.5 3.84988 24.5 4.37488C24.5036 4.60661 24.4151 4.83031 24.254 4.99688L4.997 24.2469C4.91532 24.3282 4.81825 24.3925 4.71146 24.436C4.60466 24.4794 4.49028 24.5011 4.375 24.4999C4.25927 24.5029 4.14413 24.4823 4.03661 24.4394C3.92908 24.3965 3.83141 24.3322 3.74955 24.2503C3.66768 24.1685 3.60334 24.0708 3.56044 23.9633C3.51754 23.8557 3.49697 23.7406 3.5 23.6249C3.5 23.3989 3.578 23.1699 3.746 23.0029L8.012 18.7579L7.547 18.3749H4.375C3.67889 18.3746 3.01136 18.098 2.51914 17.6057C2.02691 17.1135 1.75027 16.446 1.75 15.7499V12.2499C1.75027 11.5538 2.02691 10.8862 2.51914 10.394C3.01136 9.90179 3.67889 9.62514 4.375 9.62488H7.547L12.578 5.43688C12.7265 5.31333 12.9139 5.24637 13.107 5.24788C13.2238 5.24479 13.34 5.26524 13.4486 5.30801C13.5573 5.35079 13.6563 5.41501 13.7396 5.49685C13.823 5.5787 13.889 5.67648 13.9337 5.78438C13.9784 5.89228 14.001 6.00808 14 6.12488V12.7699L17.254 9.48788C17.1286 9.36989 17.0415 9.21701 17.0039 9.04901C16.9663 8.881 16.9799 8.70557 17.043 8.54538C17.106 8.38518 17.2157 8.24758 17.3578 8.15034C17.4999 8.0531 17.6678 8.00069 17.84 7.99988C17.991 7.99988 18.156 8.03688 18.292 8.12188L18.511 8.25888L20.425 6.34488L19.878 6.01688C19.591 5.84388 19.428 5.56688 19.428 5.26488C19.428 4.79188 19.807 4.36988 20.304 4.36988C20.449 4.36988 20.596 4.40388 20.726 4.48488L21.683 5.08688L23.003 3.75388C23.0844 3.67236 23.1812 3.60797 23.2879 3.56452C23.3946 3.52106 23.5088 3.49942 23.624 3.50088L23.625 3.49988ZM12.25 7.98388L8.45 11.1839C8.27959 11.2993 8.0806 11.3654 7.875 11.3749H4.375C4.25968 11.3734 4.14524 11.395 4.03841 11.4385C3.93158 11.4819 3.83454 11.5463 3.75299 11.6279C3.67144 11.7094 3.60704 11.8065 3.5636 11.9133C3.52015 12.0201 3.49852 12.1346 3.5 12.2499V15.7499C3.5 16.2419 3.883 16.6249 4.375 16.6249H7.875C8.066 16.6249 8.285 16.7069 8.449 16.8159L9.242 17.4999L12.25 14.5199V7.98388ZM10.719 20.9999L12.581 22.5579C12.7091 22.6624 12.8644 22.7283 13.0286 22.7478C13.1928 22.7672 13.3591 22.7395 13.5082 22.6678C13.6572 22.5962 13.7827 22.4835 13.87 22.3431C13.9572 22.2026 14.0027 22.0402 14.001 21.8749L14 17.7459L10.719 20.9999ZM16.974 19.1299C16.974 19.6049 17.387 20.0159 17.855 20.0159C18.0104 20.0078 18.1613 19.961 18.294 19.8799C20.59 18.5639 21.875 16.4879 21.875 13.9999C21.875 12.7969 21.575 11.7029 21 10.7189L19.715 12.0309C19.9903 12.6505 20.1301 13.3218 20.125 13.9999C20.125 16.3519 18.648 17.6699 17.416 18.3719C17.2822 18.4482 17.1709 18.5585 17.0933 18.6915C17.0156 18.8246 16.9745 18.9758 16.974 19.1299ZM19.429 22.7359C19.429 23.2319 19.829 23.6249 20.316 23.6249C20.4603 23.6268 20.6023 23.5895 20.727 23.5169C22.406 22.5595 23.8014 21.1746 24.7715 19.503C25.7416 17.8313 26.2518 15.9326 26.25 13.9999C26.25 11.6479 25.484 9.43388 24.145 7.57388L22.887 8.83188C23.94 10.3493 24.5029 12.1529 24.5 13.9999C24.5 17.3089 22.723 20.3719 19.879 21.9839C19.7433 22.0572 19.6299 22.1658 19.5507 22.2981C19.4716 22.4304 19.4295 22.5817 19.429 22.7359Z" fill="#1A1C1F"/>
</g>
<defs>
<clipPath id="clip0_184_397">
<rect width="28" height="28" fill="white"/>
</clipPath>
</defs>
</svg>

<svg xmlns="http://www.w3.org/2000/svg" width="28" height="28" fill="none"><g clip-path="url(#a)"><path fill="#1A1C1F" fill-rule="evenodd" d="M23.625 3.5c.478 0 .875.35.875.875a.88.88 0 0 1-.246.622L4.997 24.247a.87.87 0 0 1-.622.253.853.853 0 0 1-.875-.875c0-.226.078-.455.246-.622l4.266-4.245-.465-.383H4.375A2.626 2.626 0 0 1 1.75 15.75v-3.5a2.626 2.626 0 0 1 2.625-2.625h3.172l5.031-4.188a.82.82 0 0 1 .529-.19.87.87 0 0 1 .893.878v6.645l3.254-3.282A.86.86 0 0 1 17.84 8c.151 0 .316.037.452.122l.219.137 1.914-1.914-.547-.328c-.287-.173-.45-.45-.45-.752 0-.473.379-.895.876-.895.145 0 .292.034.422.115l.957.602 1.32-1.333a.86.86 0 0 1 .621-.253zM12.25 7.984l-3.8 3.2c-.17.115-.37.181-.575.19h-3.5a.863.863 0 0 0-.875.876v3.5c0 .492.383.875.875.875h3.5c.191 0 .41.082.574.19l.793.685 3.008-2.98zM10.719 21l1.862 1.558a.87.87 0 0 0 1.42-.683L14 17.745zm6.255-1.87c0 .475.413.886.881.886a.94.94 0 0 0 .439-.136c2.296-1.316 3.581-3.392 3.581-5.88 0-1.203-.3-2.297-.875-3.281l-1.285 1.312c.275.62.415 1.29.41 1.969 0 2.352-1.477 3.67-2.709 4.372a.88.88 0 0 0-.442.758m2.455 3.606c0 .496.4.889.887.889a.8.8 0 0 0 .411-.108A10.94 10.94 0 0 0 26.25 14c0-2.352-.766-4.566-2.105-6.426l-1.258 1.258A9.04 9.04 0 0 1 24.5 14c0 3.309-1.777 6.372-4.621 7.984a.86.86 0 0 0-.45.752" clip-rule="evenodd"/></g><defs><clipPath id="a"><path fill="#fff" d="M0 0h28v28H0z"/></clipPath></defs></svg>
